images/about/about-youview.svg

<svg height="150" viewBox="0 0 250 150" width="250" xmlns="http://www.w3.org/2000/svg" xmlns:xlink="http://www.w3.org/1999/xlink"><mask id="a" fill="#fff"><path d="m0 .28791841v46.78281899h249.225018v-46.78281899z" fill="#fff" fill-rule="evenodd"/></mask><mask id="b" fill="#fff"><path d="m12.2822306 0h-12.00509932v10.4040926h12.00509932z" fill="#fff" fill-rule="evenodd"/></mask><g fill="#37aae6" fill-rule="evenodd"><path d="m182.01386 15.4605126c-.015691.2078974-.190246.3628399-.39226.3785303h-13.364278c-.217704 0-.400104-.1686716-.415795-.3844142l.017652-.9845712c.266736-6.6742939 6.221234-6.75470708 6.917495-6.75470708h.207897c.696261 0 6.158473-.09414226 6.958682 6.79589438 0 0 .037265.4354079.054916.7649058.017652.3275366.015691.184362.015691.184362zm-126.283996 12.3012552h-.1510199c-4.7424163 0-7.1489278-3.4106956-7.1489278-10.134022 0-6.1682793 2.6320607-9.70645919 7.2156119-9.70645919 4.6031643 0 7.2352249 3.53817989 7.2352249 9.70645919 0 6.7233264-2.4065115 10.134022-7.1508891 10.134022zm173.99647-25.5910042s-.943384-.0019613-1.129707.63546025c-.186324.63742155-3.697045 17.87918405-3.697045 17.87918405s-.056878.4432532-.46875.4432532c-.254969 0-.413834-.2098588-.462867-.4609048l-4.087343-18.14592053-.011767.0019613c-.125523-.38441422-.596235-.35303347-.596235-.35303347h-9.892782s-.517783.03334205-.690377.70410565c-.035303.12748431-3.828452 17.82622905-3.828452 17.82622905s-.029419.4275628-.458943.4275628c-.253007 0-.42364-.2137814-.46875-.4510983l-3.910826-18.09296552c-.100027-.44521443-.411873-.41383368-.411873-.41383368h-11.950183c-.784519 0-.433447.61976987-.433447.61976987l.635461 1.77693515c.027458.04314853.039226.08237448.050993.1314069v.0039226c.007846.02745816.015691.05687761.015691.08825837 0 .25692991-.203975.4628661-.460905.4628661-.096104 0-.186323-.03138075-.262814-.08237447-.035303-.02353557-.062761-.05295502-.092181-.08629707l-.54524-.51189854c-3.455806-2.89487448-6.790011-4.09322699-11.893306-4.28151151l-.141213-.00392259c-8.370816 0-12.373823 3.57740586-14.266475 5.67403243-1.802432 1.99463912-2.826229 4.72476466-3.455806 6.69390686-.041187.1235618-.086297.1961297-.131406.237317-.09022.1039487-.221627.1686715-.368724.1686715-.272621 0-.476595-.2039749-.476595-.4746339v-.0019613c-.005884-.0098064-.007846-.0176516-.007846-.0176516v-9.95162137s.027458-.1961297-.117677-.32753661c-.166711-.15298117-.382453-.11767782-.382453-.11767782h-22.909912s-.172594-.02745816-.309884.09806485c-.172595.15690377-.162788.25300732-.162788.25300732l-3.995162 18.26752093s-.094142.3667625-.482479.3667625c-.384415 0-.421679-.3471495-.421679-.3471495l-4.044195-18.22829501s0-.15886507-.135329-.2726203c-.264775-.22947175-.384414-.13729079-.384414-.13729079h-22.9687505s-.5040533-.05687762-.5040533.38637552c0 3.03804916.0235356 13.99973848.0235356 14.75876048v.145136c.0490324 3.1674947-.6668411 5.5190899-2.1221235 6.9979079-1.0865586 1.1042103-2.5398797 1.6612186-4.3285826 1.6612186-1.7710513 0-3.2204498-.5570083-4.3011245-1.6612186-1.0139906-1.0257584-2.2084205-3.0792364-2.1476203-7.0135983v-.1216004c0-.5177825.0156904-11.4716266.0156904-14.67246342 0-.51582113-.5315115-.47659519-.5315115-.47659519h-11.2068515s-.5197437.03726465-.5138598.42167887c.0058839.28438808-.0451098 4.57374477 0 7.00771444.0156904.6158473-.6786088.633499-.8884676.21182008-.1941684-.34714958-.3451883-.6021182-.3451883-.6021182-.8766998-1.59649582-1.9436454-2.95175209-3.1753399-4.02654289-3.1812239-2.74973849-7.6961297-4.24424686-13.4113494-4.43645397l-.1627877-.00588389c-7.5568776 0-12.0266736 2.72816422-14.439069 5.0189592l-.6197699.58642783s-.3020397.37853033-.6511506.17259414c-.3314592-.19220711-.1000261-.59231172-.1000261-.59231172l1.0924424-3.16161087s.1216004-.25104603-.1078713-.46090482c-.2333944-.21378138-.36284-.13729079-.36284-.13729079h-12.022751c-.0411873 0-.0862971-.0019613-.1294456-.0039226-.0941423-.00784518-.3471496.00784519-.4275628.34126569-.0804132.32753662-3.3675471 12.29341001-4.6875 17.16527201-.2432008.898274-.864932.7904027-1.0747908.0784518-.0686454-.2275104-4.5149058-16.99267778-4.5149058-16.99267778s-.092181-.43540795-.2883107-.53935669c-.1961297-.10983264-.435408-.04903243-.435408-.04903243h-11.63441419s-.396182-.03138075-.63153765.20593619c-.23927825.23927824-.04118724.81589958-.04118724.81589958l10.39291318 29.90978033c.5373954 1.5278504.8668933 2.4908473.8668933 2.9831329 0 1.7671286-1.6180701 2.0024843-3.1969142 2.0024843l-7.29406383-.0274582c-.65703452-.0019613-1.26503661.3471496-1.59453452.9159257l-3.88729079 6.7174425c-.16474896.2843881-.16474896.6354603 0 .917887.16278765.2843881.4667887.4589435.79432531.4589435l15.82570603-.0117677c2.8634938 0 5.3327668.052955 7.8216528-1.9377615 2.4065115-1.9554132 3.5774058-4.8679394 4.6561192-7.9334467l6.3212605-18.1871077s.0764905-.3118463.3844142-.3118463c.3079236 0 .3255753.3883369.3255753.3883369l.1216004 1.3964435c.5020921 6.6644874 4.0108525 10.3399581 6.0564854 11.9364539 3.2910565 2.5732218 7.5941422 3.8794456 12.7915795 3.8794456 9.2377092 0 13.9487447-4.087343 15.541318-5.8446652 1.2768044-1.40625 2.2868724-3.0713912 3.0027458-4.9463912l.1863232-.4962082s.0588389-.3157688.4334467-.3157688c.3196914 0 .409911.2549686.409911.2549686l.2039749.5687761c1.2552302 3.4832636 3.320476 5.6799164 4.8345973 6.9076883 3.1929917 2.5692992 7.354864 3.8716004 12.3699006 3.8716004h.7511768c5.011114 0 9.1769086-1.3023012 12.3718616-3.875523 2.214305-1.7945868 5.932924-5.9446914 5.940769-13.5604079v-7.7098588s-.035303-.5256276.45306-.5256276c.358917 0 .435408.3079236.435408.3079236l8.298248 24.1337605s.023535.0980648.168671.198091c.145136.0961035.292233.0862971.292233.0862971h13.466266s.084336.0372646.28635-.1059101c.200052-.145136.200052-.2941945.200052-.2941945l7.221496-23.4433839s.096103-.5785827.609963-.5785827c.562892 0 .429524.9728034.429524.9728034l-.017652 22.9962081s-.025496.1588651.141214.3275366c.172594.1686716.319691.1294457.319691.1294457h11.79328s.180439.0058838.315768-.1412134c.137291-.1431747.145136-.2196653.145136-.2981172v-10.5576621c0-.4040272.384415-.4432532.384415-.4432532s.305962-.1725941.541318.3726465c.045109.1137552.072568.2333943.113755.3530335.841396 2.4947698 2.330021 5.4896705 4.909126 7.4901935 2.790926 2.1672332 6.338912 3.2204498 12.105126 3.2204498h17.694822s.704106.0804131.456982-.7374477l-1.735748-5.2778505c-.129445-.3412656-.274581-.7099895-.411872-1.076752-.254969-.6609572-.89239-.9198484-1.469012-1.0120293l-14.621469-.0058839c-2.61637 0-4.346235-1.1610879-5.197437-3.4185408 0 0-.141214-.3765691-.003923-.6021182.15102-.2588912.486402-.2255492.486402-.2255492l22.15285.0058839c.096104-.0156904.194168-.0294195.294195-.0294195.927693 0 1.696522.653112 1.878922 1.5258892l.017652.0117678 3.363624 10.2850418s.013729.5570084.682532.5570084h11.832505c.45306 0 .617809-.4412919.617809-.4412919l3.879445-15.0451098c0-.2530073.205936-.4628661.460905-.4628661s.462866.2098588.462866.4628661l4.242286 15.4864017h12.82296l6.927301-23.2550994s.188285-.5432793.49817-.719796c.307923-.1784781.743331-.2078975.743331-.2078975l4.909127.0078452c.766867 0 1.455282-.4765952 1.722019-1.19639125l2.598718-6.99202406c.070607-.18828452.043149-.39814331-.070606-.56289226-.115717-.16474895-.30204-.26281381-.504054-.26281381z" mask="url(#a)" transform="translate(0 56.767782)"/><path d="m12.2822306.6113363c0-.3353818-.2745815-.61192469-.6119246-.61192469h-10.78125004c-.3353818 0-.61192468.27654289-.61192468.61192469v9.18083159c0 .33734311.27654288.61192471.61192468.61192471h10.78125004c.3373431 0 .6119246-.2745816.6119246-.61192471z" mask="url(#b)" transform="translate(143.174686 45)"/></g></svg>

<?xml version="1.0" encoding="UTF-8"?>
<svg width="250px" height="150px" viewBox="0 0 250 150" version="1.1" xmlns="http://www.w3.org/2000/svg" xmlns:xlink="http://www.w3.org/1999/xlink">
    <title>about-youview</title>
    <defs>
        <polygon id="path-1" points="0 0.28791841 0 47.0707374 249.225018 47.0707374 249.225018 0.28791841 0 0.28791841"></polygon>
        <polygon id="path-3" points="12.2822306 3.41521325e-15 0.277131276 -3.55271368e-15 0.277131276 10.4040926 12.2822306 10.4040926 12.2822306 -3.55271368e-15"></polygon>
    </defs>
    <g id="about-youview" stroke="none" stroke-width="1" fill="none" fill-rule="evenodd">
        <g id="YV-Logo" transform="translate(0.000000, 45.000000)">
            <g id="Group-6" transform="translate(0.000000, 11.767782)">
                <mask id="mask-2" fill="white">
                    <use xlink:href="#path-1"></use>
                </mask>
                <g id="Clip-5"></g>
                <path d="M182.01386,15.4605126 C181.998169,15.66841 181.823614,15.8233525 181.6216,15.8390429 L168.257322,15.8390429 C168.039618,15.8390429 167.857218,15.6703713 167.841527,15.4546287 L167.859179,14.4700575 C168.125915,7.7957636 174.080413,7.71535042 174.776674,7.71535042 L174.984571,7.71535042 C175.680832,7.71535042 181.143044,7.62120816 181.943253,14.5112448 C181.943253,14.5112448 181.980518,14.9466527 181.998169,15.2761506 C182.015821,15.6036872 182.01386,15.4605126 182.01386,15.4605126 L182.01386,15.4605126 Z M55.729864,27.7617678 L55.5788441,27.7617678 C50.8364278,27.7617678 48.4299163,24.3510722 48.4299163,17.6277458 C48.4299163,11.4594665 51.061977,7.92128661 55.6455282,7.92128661 C60.2486925,7.92128661 62.8807531,11.4594665 62.8807531,17.6277458 C62.8807531,24.3510722 60.4742416,27.7617678 55.729864,27.7617678 L55.729864,27.7617678 Z M229.726334,2.1707636 C229.726334,2.1707636 228.78295,2.1688023 228.596627,2.80622385 C228.410303,3.4436454 224.899582,20.6854079 224.899582,20.6854079 C224.899582,20.6854079 224.842704,21.1286611 224.430832,21.1286611 C224.175863,21.1286611 224.016998,20.9188023 223.967965,20.6677563 L219.880622,2.52183577 L219.868855,2.52379707 C219.743332,2.13938285 219.27262,2.1707636 219.27262,2.1707636 L209.379838,2.1707636 C209.379838,2.1707636 208.862055,2.20410565 208.689461,2.87486925 C208.654158,3.00235356 204.861009,20.7010983 204.861009,20.7010983 C204.861009,20.7010983 204.83159,21.1286611 204.402066,21.1286611 C204.149059,21.1286611 203.978426,20.9148797 203.933316,20.6775628 L200.02249,2.58459728 C199.922463,2.13938285 199.610617,2.1707636 199.610617,2.1707636 L187.660434,2.1707636 C186.875915,2.1707636 187.226987,2.79053347 187.226987,2.79053347 L187.862448,4.56746862 C187.889906,4.61061715 187.901674,4.6498431 187.913441,4.69887552 L187.913441,4.70279812 C187.921287,4.73025628 187.929132,4.75967573 187.929132,4.79105649 C187.929132,5.0479864 187.725157,5.25392259 187.468227,5.25392259 C187.372123,5.25392259 187.281904,5.22254184 187.205413,5.17154812 C187.17011,5.14801255 187.142652,5.1185931 187.113232,5.08525105 L186.567992,4.57335251 C183.112186,1.67847803 179.777981,0.480125523 174.674686,0.291841004 L174.533473,0.28791841 C166.162657,0.28791841 162.15965,3.86532427 160.266998,5.96195084 C158.464566,7.95658996 157.440769,10.6867155 156.811192,12.6558577 C156.770005,12.7794195 156.724895,12.8519874 156.679786,12.8931747 C156.589566,12.9971234 156.458159,13.0618462 156.311062,13.0618462 C156.038441,13.0618462 155.834467,12.8578713 155.834467,12.5872123 L155.834467,12.585251 C155.828583,12.5754446 155.826621,12.5675994 155.826621,12.5675994 L155.826621,2.61597803 C155.826621,2.61597803 155.854079,2.41984833 155.708944,2.28844142 C155.542233,2.13546025 155.326491,2.1707636 155.326491,2.1707636 L132.416579,2.1707636 C132.416579,2.1707636 132.243985,2.14330544 132.106695,2.26882845 C131.9341,2.42573222 131.943907,2.52183577 131.943907,2.52183577 L127.948745,20.7893567 C127.948745,20.7893567 127.854603,21.1561192 127.466266,21.1561192 C127.081851,21.1561192 127.044587,20.8089697 127.044587,20.8089697 L123.000392,2.58067469 C123.000392,2.58067469 123.000392,2.42180962 122.865063,2.30805439 C122.600288,2.07858264 122.480649,2.1707636 122.480649,2.1707636 L99.5118985,2.1707636 C99.5118985,2.1707636 99.0078452,2.11388598 99.0078452,2.55713912 C99.0078452,5.59518828 99.0313808,16.5568776 99.0313808,17.3158996 L99.0313808,17.4610356 C99.0804132,20.6285303 98.3645397,22.9801255 96.9092573,24.4589435 C95.8226987,25.5631538 94.3693776,26.1201621 92.5806747,26.1201621 C90.8096234,26.1201621 89.3602249,25.5631538 88.2795502,24.4589435 C87.2655596,23.4331851 86.0711297,21.3797071 86.1319299,17.4453452 L86.1319299,17.3237448 C86.1319299,16.8059623 86.1476203,5.8521182 86.1476203,2.65128138 C86.1476203,2.13546025 85.6161088,2.17468619 85.6161088,2.17468619 L74.4092573,2.17468619 C74.4092573,2.17468619 73.8895136,2.21195084 73.8953975,2.59636506 C73.9012814,2.88075314 73.8502877,7.17010983 73.8953975,9.6040795 C73.9110879,10.2199268 73.2167887,10.2375785 73.0069299,9.81589958 C72.8127615,9.46875 72.6617416,9.21378138 72.6617416,9.21378138 C71.7850418,7.61728556 70.7180962,6.26202929 69.4864017,5.18723849 C66.3051778,2.4375 61.790272,0.942991632 56.0750523,0.750784519 L55.9122646,0.744900628 C48.355387,0.744900628 43.885591,3.47306485 41.4731956,5.76385983 L40.8534257,6.35028766 C40.8534257,6.35028766 40.551386,6.72881799 40.2022751,6.5228818 C39.8708159,6.33067469 40.102249,5.93057008 40.102249,5.93057008 L41.1946914,2.76895921 C41.1946914,2.76895921 41.3162918,2.51791318 41.0868201,2.30805439 C40.8534257,2.09427301 40.7239801,2.1707636 40.7239801,2.1707636 L28.7012291,2.1707636 C28.6600418,2.1707636 28.614932,2.1688023 28.5717835,2.166841 C28.4776412,2.15899582 28.2246339,2.17468619 28.1442207,2.50810669 C28.0638075,2.83564331 24.7766736,14.8015167 23.4567207,19.6733787 C23.2135199,20.5716527 22.5917887,20.4637814 22.3819299,19.7518305 C22.3132845,19.5243201 17.8670241,2.75915272 17.8670241,2.75915272 C17.8670241,2.75915272 17.7748431,2.32374477 17.5787134,2.21979603 C17.3825837,2.10996339 17.1433054,2.1707636 17.1433054,2.1707636 L5.50889121,2.1707636 C5.50889121,2.1707636 5.11270921,2.13938285 4.87735356,2.37669979 C4.63807531,2.61597803 4.83616632,3.19259937 4.83616632,3.19259937 L15.2290795,33.1023797 C15.7664749,34.6302301 16.0959728,35.593227 16.0959728,36.0855126 C16.0959728,37.8526412 14.4779027,38.0879969 12.8990586,38.0879969 L5.60499477,38.0605387 C4.94796025,38.0585774 4.33995816,38.4076883 4.01046025,38.9764644 L0.123169456,45.6939069 C-0.0415794979,45.978295 -0.0415794979,46.3293672 0.123169456,46.6117939 C0.285957113,46.896182 0.589958159,47.0707374 0.91749477,47.0707374 L16.7432008,47.0589697 C19.6066946,47.0589697 22.0759676,47.1119247 24.5648536,45.1212082 C26.9713651,43.165795 28.1422594,40.2532688 29.2209728,37.1877615 L35.5422333,19.0006538 C35.5422333,19.0006538 35.6187238,18.6888075 35.9266475,18.6888075 C36.2345711,18.6888075 36.2522228,19.0771444 36.2522228,19.0771444 L36.3738232,20.4735879 C36.8759153,27.1380753 40.3846757,30.813546 42.4303086,32.4100418 C45.7213651,34.9832636 50.0244508,36.2894874 55.2218881,36.2894874 C64.4595973,36.2894874 69.1706328,32.2021444 70.7632061,30.4448222 C72.0400105,29.0385722 73.0500785,27.373431 73.7659519,25.498431 L73.9522751,25.0022228 C73.9522751,25.0022228 74.011114,24.686454 74.3857218,24.686454 C74.7054132,24.686454 74.7956328,24.9414226 74.7956328,24.9414226 L74.9996077,25.5101987 C76.2548379,28.9934623 78.3200837,31.1901151 79.834205,32.417887 C83.0271967,34.9871862 87.189069,36.2894874 92.2041056,36.2894874 L92.9552824,36.2894874 C97.9663964,36.2894874 102.132191,34.9871862 105.327144,32.4139644 C107.541449,30.6193776 111.260068,26.469273 111.267913,18.8535565 L111.267913,11.1436977 C111.267913,11.1436977 111.23261,10.6180701 111.720973,10.6180701 C112.07989,10.6180701 112.156381,10.9259937 112.156381,10.9259937 L120.454629,35.0597542 C120.454629,35.0597542 120.478164,35.157819 120.6233,35.2578452 C120.768436,35.3539487 120.915533,35.3441423 120.915533,35.3441423 L134.381799,35.3441423 C134.381799,35.3441423 134.466135,35.3814069 134.668149,35.2382322 C134.868201,35.0930962 134.868201,34.9440377 134.868201,34.9440377 L142.089697,11.5006538 C142.089697,11.5006538 142.1858,10.9220711 142.69966,10.9220711 C143.262552,10.9220711 143.129184,11.8948745 143.129184,11.8948745 L143.111532,34.8910826 C143.111532,34.8910826 143.086036,35.0499477 143.252746,35.2186192 C143.42534,35.3872908 143.572437,35.3480649 143.572437,35.3480649 L155.365717,35.3480649 C155.365717,35.3480649 155.546156,35.3539487 155.681485,35.2068515 C155.818776,35.0636768 155.826621,34.9871862 155.826621,34.9087343 L155.826621,24.3510722 C155.826621,23.947045 156.211036,23.907819 156.211036,23.907819 C156.211036,23.907819 156.516998,23.7352249 156.752354,24.2804655 C156.797463,24.3942207 156.824922,24.5138598 156.866109,24.633499 C157.707505,27.1282688 159.19613,30.1231695 161.775235,32.1236925 C164.566161,34.2909257 168.114147,35.3441423 173.880361,35.3441423 L191.575183,35.3441423 C191.575183,35.3441423 192.279289,35.4245554 192.032165,34.6066946 L190.296417,29.3288441 C190.166972,28.9875785 190.021836,28.6188546 189.884545,28.2520921 C189.629576,27.5911349 188.992155,27.3322437 188.415533,27.2400628 L173.794064,27.2341789 C171.177694,27.2341789 169.447829,26.073091 168.596627,23.8156381 C168.596627,23.8156381 168.455413,23.439069 168.592704,23.2135199 C168.743724,22.9546287 169.079106,22.9879707 169.079106,22.9879707 L191.231956,22.9938546 C191.32806,22.9781642 191.426124,22.9644351 191.526151,22.9644351 C192.453844,22.9644351 193.222673,23.6175471 193.405073,24.4903243 L193.422725,24.5020921 L196.786349,34.7871339 C196.786349,34.7871339 196.800078,35.3441423 197.468881,35.3441423 L209.301386,35.3441423 C209.754446,35.3441423 209.919195,34.9028504 209.919195,34.9028504 L213.79864,19.8577406 C213.79864,19.6047333 214.004576,19.3948745 214.259545,19.3948745 C214.514514,19.3948745 214.722411,19.6047333 214.722411,19.8577406 L218.964697,35.3441423 L231.787657,35.3441423 L238.714958,12.0890429 C238.714958,12.0890429 238.903243,11.5457636 239.213128,11.3692469 C239.521051,11.1907688 239.956459,11.1613494 239.956459,11.1613494 L244.865586,11.1691946 C245.632453,11.1691946 246.320868,10.6925994 246.587605,9.97280335 L249.186323,2.98077929 C249.25693,2.79249477 249.229472,2.58263598 249.115717,2.41788703 C249,2.25313808 248.813677,2.15507322 248.611663,2.15507322 L229.726334,2.1707636 Z" id="Fill-4" fill="#37AAE6" mask="url(#mask-2)"></path>
            </g>
            <g id="Group-9" transform="translate(143.174686, 0.000000)">
                <mask id="mask-4" fill="white">
                    <use xlink:href="#path-3"></use>
                </mask>
                <g id="Clip-8"></g>
                <path d="M12.2822306,0.611336297 C12.2822306,0.275954498 12.0076491,-0.000588389121 11.670306,-0.000588389121 L0.889055962,-0.000588389121 C0.553674163,-0.000588389121 0.277131276,0.275954498 0.277131276,0.611336297 L0.277131276,9.79216789 C0.277131276,10.129511 0.553674163,10.4040926 0.889055962,10.4040926 L11.670306,10.4040926 C12.0076491,10.4040926 12.2822306,10.129511 12.2822306,9.79216789 L12.2822306,0.611336297 Z" id="Fill-7" fill="#37AAE6" mask="url(#mask-4)"></path>
            </g>
        </g>
    </g>
</svg>
